projects/icons/src/tuiIconSubscript.svg

<svg xmlns="http://www.w3.org/2000/svg" id="tuiIconSubscript" viewBox="0 0 24 24" fill="none">
<path d="M21 21C21.5523 21 22 20.5523 22 20C22 19.4477 21.5523 19 21 19V21ZM16.3333 15.8947C16.3333 16.447 16.781 16.8947 17.3333 16.8947C17.8856 16.8947 18.3333 16.447 18.3333 15.8947H16.3333ZM17.0864 19.7545L16.1431 19.4226L17.0864 19.7545ZM18.9193 17.5666L18.4535 16.6817L18.9193 17.5666ZM19.0798 15H19.1816V13H19.0798V15ZM17.2602 21H21V19H17.2602V21ZM16.3333 15.7465V15.8947H18.3333V15.7465H16.3333ZM19.3669 16.201L18.4535 16.6817L19.385 18.4515L20.2984 17.9708L19.3669 16.201ZM16.1819 19.3122L16.1431 19.4226L18.0297 20.0864L18.0685 19.976L16.1819 19.3122ZM17.2602 19C17.8227 19 18.2164 19.5558 18.0297 20.0864L16.1431 19.4226C15.872 20.1929 16.4436 21 17.2602 21V19ZM19.7508 15.6571C19.7174 15.8894 19.5746 16.0916 19.3669 16.201L20.2984 17.9708C21.0731 17.5631 21.6055 16.8089 21.7304 15.9424L19.7508 15.6571ZM18.4535 16.6817C17.3916 17.2406 16.5802 18.1802 16.1819 19.3122L18.0685 19.976C18.2994 19.32 18.7696 18.7754 19.385 18.4515L18.4535 16.6817ZM19.1816 15C19.5319 15 19.8008 15.3105 19.7508 15.6571L21.7304 15.9424C21.9541 14.3901 20.75 13 19.1816 13V15ZM19.0798 13C17.563 13 16.3333 14.2296 16.3333 15.7465H18.3333C18.3333 15.3342 18.6675 15 19.0798 15V13Z" fill="currentColor"/>
<path d="M6 6L10 11M14 16L10 11M10 11L6 16M10 11L14 6" stroke="currentColor" stroke-width="2" stroke-linecap="round" stroke-linejoin="round"/>
</svg>

<svg xmlns="http://www.w3.org/2000/svg" id="tuiIconSubscript" fill="none" viewBox="0 0 24 24"><path fill="currentColor" d="M21 21a1 1 0 100-2v2zm-4.667-5.105a1 1 0 102 0h-2zm.753 3.86l-.943-.332.943.332zm1.833-2.188l-.466-.885.466.885zM19.08 15h.103v-2h-.102v2zm-1.819 6H21v-2h-3.74v2zm-.927-5.254v.149h2v-.149h-2zm3.034.455l-.914.48.932 1.77.913-.48-.931-1.77zm-3.185 3.111l-.039.11 1.887.664.038-.11-1.886-.664zM17.26 19c.563 0 .956.556.77 1.086l-1.887-.663c-.271.77.3 1.577 1.117 1.577v-2zm2.49-3.343a.733.733 0 01-.383.544l.931 1.77a2.733 2.733 0 001.432-2.029l-1.98-.285zm-1.297 1.025a4.757 4.757 0 00-2.271 2.63l1.887.664c.23-.656.7-1.2 1.316-1.524l-.932-1.77zM19.182 15c.35 0 .619.31.569.657l1.98.285A2.575 2.575 0 0019.18 13v2zm-.102-2a2.747 2.747 0 00-2.747 2.746h2c0-.412.335-.746.747-.746v-2z"/><path stroke="currentColor" stroke-linecap="round" stroke-linejoin="round" stroke-width="2" d="M6 6l4 5m4 5l-4-5m0 0l-4 5m4-5l4-5"/></svg>
